assets/images/afrikons/naira.svg

<svg viewBox="0 0 50 50" xmlns="http://www.w3.org/2000/svg"><path d="m0 0h50v50h-50z" fill="none"/><path d="m38.69 22.23v-2.64h-4.34v-6.22h-3.79v6.22h-7.27l-4.55-6.22h-3.24v6.22h-4.19v2.64h4.19v5.54h-4.19v2.64h4.19v6.22h3.79v-6.22h7.21l4.56 6.22h3.29v-6.22h4.34v-2.64h-4.34v-5.54zm-18.18 0 4 5.54h-5.22v-5.54zm8.76 5.54-4.05-5.54h5.34v5.54z"/></svg>

<svg xmlns="http://www.w3.org/2000/svg" viewBox="0 0 50 50"><defs><style>.cls-1{fill:none;}</style></defs><title>naira</title><g id="Layer_2" data-name="Layer 2"><g id="Layer_1-2" data-name="Layer 1"><rect class="cls-1" width="50" height="50"/><path d="M38.69,22.23V19.59H34.35V13.37H30.56v6.22H23.29l-4.55-6.22H15.5v6.22H11.31v2.64H15.5v5.54H11.31v2.64H15.5v6.22h3.79V30.41H26.5l4.56,6.22h3.29V30.41h4.34V27.77H34.35V22.23Zm-18.18,0,4,5.54H19.29V22.23Zm8.76,5.54-4.05-5.54h5.34v5.54Z"/></g></g></svg>
